!!!COM: Varèse, Edgard [Edgar] (Victor Achille Charles)
!!!OTL: Arcana for Grand Orchestra
!!!OMV:
!!!example: 419
!!!work: Var-6
**kern	**dynam	**kern	**dynam	**kern	**dynam	**kern	**dynam	**kern	**kern	**dynam	**kern	**dynam	**kern	**dynam	**kern	**kern	**dynam	**kern	**dynam
*part11	*part11	*part10	*part10	*part9	*part9	*part8	*part8	*part7	*part6	*part6	*part5	*part5	*part4	*part4	*part3	*part2	*part2	*part1	*part1
*staff11	*	*staff10	*	*staff9	*	*staff8	*	*staff7	*staff6	*	*staff5	*	*staff4	*	*staff3	*staff2	*	*staff1	*
*I"Violoncello	*	*I"Viola	*	*I"Violin II	*	*I"Violin I	*	*I"Horn in F II. IV.	*I"Clarinet in Eb II.	*	*I"Clarinet in Eb I.	*	*I"Oboe II. III.	*	*I"Oboe I.	*I"Flute II.	*	*I"Flute I.	*
*I'Vc.	*	*I'Vla.	*	*I'Vln. II	*	*I'Vln. I	*	*I'Hn.	*I'Eb Cl.	*	*I'Eb Cl.	*	*I'Ob.	*	*I'Ob.	*I'Fl.	*	*I'Fl.	*
!!pagebreak:original
*clefC4	*	*clefC3	*	*clefG2	*	*clefG2	*	*clefG2	*clefG2	*	*clefG2	*	*clefG2	*	*clefG2	*clefG2	*	*clefG2	*
*	*	*	*	*	*	*	*	*ITrd4c7	*ITrd-2c-3	*	*ITrd-2c-3	*	*	*	*	*	*	*	*
*k[]	*	*k[]	*	*k[]	*	*k[]	*	*k[]	*k[]	*	*k[]	*	*k[]	*	*k[]	*k[]	*	*k[]	*
*C:	*	*C:	*	*C:	*	*C:	*	*C:	*C:	*	*C:	*	*C:	*	*C:	*C:	*	*C:	*
*M3/4	*	*M3/4	*	*M3/4	*	*M3/4	*	*M3/4	*M3/4	*	*M3/4	*	*M3/4	*	*M3/4	*M3/4	*	*M3/4	*
*MM121	*	*MM121	*	*MM121	*	*MM121	*	*MM121	*MM121	*	*MM121	*	*MM121	*	*MM121	*MM121	*	*MM121	*
=319	=319	=319	=319	=319	=319	=319	=319	=319	=319	=319	=319	=319	=319	=319	=319	=319	=319	=319	=319
!	!	!	!	!	!	!	!	!LO:TX:t=IV.	!	!	!	!	!	!	!	!	!	!	!
*	*	*	*	*	*	*	*	*^	*	*	*	*	*	*	*	*	*	*	*
16%3fn'	p	16%3f#X'	p	16%3b'	p	4%3r	.	2.r	16%3cc#X'	4%3r	.	4%3r	.	16%3b'	p	4%3r	16%3f'	p	4%3r	.
16%3f'	.	16%3f#'	.	16%3b'	.	.	.	.	16%3cc#'	.	.	.	.	16%3b'	.	.	16%3f'	.	.	.
16%3f'	.	16%3f#'	.	16%3b'	.	.	.	.	16%3cc#'	.	.	.	.	16%3b'	.	.	16%3f'	.	.	.
16%3f'	.	16%3f#'	.	16%3b'	.	.	.	.	16%3cc#'	.	.	.	.	16%3b'	.	.	16%3f'	.	.	.
=320	=320	=320	=320	=320	=320	=320	=320	=320	=320	=320	=320	=320	=320	=320	=320	=320	=320	=320	=320	=320
!	!	!	!	!	!	!LO:TX:t=Pont.	!	!LO:TX:t=II.	!	!	!	!	!	!	!	!	!	!	!	!
16%3fn'	.	16%3f#X'	.	16%3b'	.	4g#X	f	16%3cc#X'	2.r	4r	.	4a-i'	mp	4%3r	.	16%3b'	4%3r	.	16%3f'	p
16%3f'	.	16%3f#'	.	16%3b'	.	.	.	16%3cc#'	.	.	.	.	.	.	.	16%3b'	.	.	16%3f'	.
.	.	.	.	.	.	4b-X	.	.	.	4r	.	4b-'	.	.	.	.	.	.	.	.
16%3f'	.	16%3f#'	.	16%3b'	.	.	.	16%3cc#'	.	.	.	.	.	.	.	16%3b'	.	.	16%3f'	.
.	.	.	.	.	.	[4aa^	.	.	.	[4ff#X^	sf >	[4aaX^	.	.	.	.	.	.	.	.
16%3f'	.	16%3f#'	.	16%3b'	.	.	.	16%3cc#'	.	.	.	.	.	.	.	16%3b'	.	.	16%3f'	.
=321	=321	=321	=321	=321	=321	=321	=321	=321	=321	=321	=321	=321	=321	=321	=321	=321	=321	=321	=321	=321
!	!	!	!	!	!	!	!	!LO:TX:t=IV.	!	!	!	!	!	!	!	!	!	!	!	!
16%3fn'	.	16%3f#X'	.	16%3b'	.	2.aa_	.	2.r	16%3cc#X'	4ff#]	pp ]	2.aa_	.	16%3b'	.	4%3r	16%3f'	.	4%3r	.
16%3f'	.	16%3f#'	.	16%3b'	.	.	.	.	16%3cc#'	.	.	.	.	16%3b'	.	.	16%3f'	.	.	.
.	.	.	.	.	.	.	.	.	.	4r	.	.	.	.	.	.	.	.	.	.
16%3f'	.	16%3f#'	.	16%3b'	.	.	.	.	16%3cc#'	.	.	.	.	16%3b'	.	.	16%3f'	.	.	.
.	.	.	.	.	.	.	.	.	.	4r	.	.	.	.	.	.	.	.	.	.
16%3f'	.	16%3f#'	.	16%3b'	.	.	.	.	16%3cc#'	.	.	.	.	16%3b'	.	.	16%3f'	.	.	.
=322	=322	=322	=322	=322	=322	=322	=322	=322	=322	=322	=322	=322	=322	=322	=322	=322	=322	=322	=322	=322
!	!	!	!	!	!	!	!	!LO:TX:t=II.	!	!	!	!	!	!	!	!	!	!	!	!
16%3fn'	.	16%3f#X'	.	16%3b'	.	4aa]	.	16%3cc#X'	2.r	4%3r	.	4aa]	.	4%3r	.	16%3b'	4%3r	.	16%3f'	.
16%3f'	.	16%3f#'	.	16%3b'	.	.	.	16%3cc#'	.	.	.	.	.	.	.	16%3b'	.	.	16%3f'	.
.	.	.	.	.	.	4r	.	.	.	.	.	4r	.	.	.	.	.	.	.	.
16%3f'	.	16%3f#'	.	16%3b'	.	.	.	16%3cc#'	.	.	.	.	.	.	.	16%3b'	.	.	16%3f'	.
.	.	.	.	.	.	(>4g#X~	.	.	.	.	.	(>4a-	.	.	.	.	.	.	.	.
16%3f'	.	16%3f#'	.	16%3b'	.	.	.	16%3cc#'	.	.	.	.	.	.	.	16%3b'	.	.	16%3f'	.
=323	=323	=323	=323	=323	=323	=323	=323	=323	=323	=323	=323	=323	=323	=323	=323	=323	=323	=323	=323	=323
!	!	!	!	!	!	!	!	!LO:TX:t=IV.	!	!	!	!	!	!	!	!	!	!	!	!
16%3fn'	.	16%3f#X'	.	16%3b'	.	4aa~	.	2.r	16%3cc#X'	4%3r	.	4aaX	.	16%3b'	.	4%3r	16%3f'	.	4%3r	.
16%3f'	.	16%3f#'	.	16%3b'	.	.	.	.	16%3cc#'	.	.	.	.	16%3b'	.	.	16%3f'	.	.	.
.	.	.	.	.	.	4g#X~	.	.	.	.	.	4a-	.	.	.	.	.	.	.	.
16%3f'	.	16%3f#'	.	16%3b'	.	.	.	.	16%3cc#'	.	.	.	.	16%3b'	.	.	16%3f'	.	.	.
.	.	.	.	.	.	4b-X~	.	.	.	.	.	4b-	.	.	.	.	.	.	.	.
16%3f'	.	16%3f#'	.	16%3b'	.	.	.	.	16%3cc#'	.	.	.	.	16%3b'	.	.	16%3f'	.	.	.
=324	=324	=324	=324	=324	=324	=324	=324	=324	=324	=324	=324	=324	=324	=324	=324	=324	=324	=324	=324	=324
!	!	!	!	!	!	!	!	!LO:TX:t=II.	!	!	!	!	!	!	!	!	!	!	!	!
16%3fn'	.	16%3f#X'	.	16%3b'	.	8aa)	.	16%3cc#X'	2.r	4r	.	8aaX)	.	4%3r	.	16%3b'	4%3r	.	16%3f'	.
.	.	.	.	.	.	8r	.	.	.	.	.	8r	.	.	.	.	.	.	.	.
16%3f'	.	16%3f#'	.	16%3b'	.	.	.	16%3cc#'	.	.	.	.	.	.	.	16%3b'	.	.	16%3f'	.
.	.	.	.	.	.	[2aa^	.	.	.	2ff#X^	sf pp > ]	[2aa^	.	.	.	.	.	.	.	.
16%3f'	.	16%3f#'	.	16%3b'	.	.	.	16%3cc#'	.	.	.	.	.	.	.	16%3b'	.	.	16%3f'	.
16%3f'	.	16%3f#'	.	16%3b'	.	.	.	16%3cc#'	.	.	.	.	.	.	.	16%3b'	.	.	16%3f'	.
=325	=325	=325	=325	=325	=325	=325	=325	=325	=325	=325	=325	=325	=325	=325	=325	=325	=325	=325	=325	=325
!	!	!	!	!	!	!	!	!LO:TX:t=IV.	!	!	!	!	!	!	!	!	!	!	!	!
16%3fn'	.	16%3f#X'	.	16%3b'	.	2aa]	.	2.r	16%3cc#X'	4%3r	.	2aa]	.	16%3b'	.	4%3r	16%3f'	.	4%3r	.
16%3f'	.	16%3f#'	.	16%3b'	.	.	.	.	16%3cc#'	.	.	.	.	16%3b'	.	.	16%3f'	.	.	.
16%3f'	.	16%3f#'	.	16%3b'	.	.	.	.	16%3cc#'	.	.	.	.	16%3b'	.	.	16%3f'	.	.	.
.	.	.	.	.	.	4g#X	.	.	.	.	.	[4a-	.	.	.	.	.	.	.	.
16%3f'	.	16%3f#'	.	16%3b'	.	.	.	.	16%3cc#'	.	.	.	.	16%3b'	.	.	16%3f'	.	.	.
*	*	*	*	*	*	*	*	*v	*v	*	*	*	*	*	*	*	*	*	*	*
=	=	=	=	=	=	=	=	=	=	=	=	=	=	=	=	=	=	=	=
*-	*-	*-	*-	*-	*-	*-	*-	*-	*-	*-	*-	*-	*-	*-	*-	*-	*-	*-	*-
!!!system-decoration: [(s1,s2,s3,s4,s5,s6)]s7[(s8,s9,s10,s11)]
!!!RDF**kern: > = above
!!!RDF**kern: i = editorial accidental
!!!CDT: 1883/12/22-1965/11/06
!!!CBL: Paris, France
!!!CDL: New York, United States
!!!CNT: French, American
!!!AGN: Orchestral; Symphonic
!!!MCN: Stokowski, Leopold
!!!MDT: 1927/04/08
!!!MGN: Philadelphia Orchestra
!!!MLC: Philadelphia, Pennsylvania, United States of America
!!!MPD: 1927
!!!MPN:
!!!ODT: 1927 (rev. 1960)
!!!PDT: 1964
!!!excerpt-start-measure: 319
!!!excerpt-end-measure: 325
!!!excerpt-start-time: 13:00
!!!excerpt-end-time: 13:05
!!!EEV: 2020/01/22
!!!ONB: Converted from MusicXML on 2020/01/22
